Obsidian-SemiLight/actions/16s/view-statistics.svg

<svg viewBox="0 0 16 16" xmlns="http://www.w3.org/2000/svg"><path d="m11 2v12h3v-12zm-5 3v9h3v-9zm-5 3v6h3v-6z" fill="#4d4d4d"/></svg>

<svg xmlns="http://www.w3.org/2000/svg" viewBox="0 0 16 16">
  <defs id="defs3051">
    <style type="text/css" id="current-color-scheme">
      .ColorScheme-Text {
        color:#4d4d4d;
      }
      </style>
  </defs>
 <path style="fill:currentColor;fill-opacity:1;stroke:none" 
       d="M 11 2 L 11 14 L 14 14 L 14 2 L 11 2 z M 6 5 L 6 14 L 9 14 L 9 5 L 6 5 z M 1 8 L 1 14 L 4 14 L 4 8 L 1 8 z "
     class="ColorScheme-Text"
     />
</svg>
